assets/features/channel/southeast-asia/shopeepay.svg

<svg width="80" height="80" viewBox="0 0 80 80" fill="none" xmlns="http://www.w3.org/2000/svg">
<rect width="80" height="80" rx="8" fill="#EE4E2C"/>
<path fill-rule="evenodd" clip-rule="evenodd" d="M24.7219 28.1224H56.1934C58.2868 28.1224 60 29.8352 60 31.9281V53.9463C60 56.0393 58.2868 57.7521 56.1934 57.7521H23.8066C21.7132 57.7521 20 56.0393 20 53.9463V26.7474C20 25.7572 20.8167 25.0721 21.7977 24.9501L50.8191 21.2476C51.8094 21.2476 52.6168 22.0547 52.6168 23.0449V26.1233H22.9054C22.9054 27.4138 23.2903 28.1224 24.7172 28.1224H24.7219ZM42.3703 52.2475C39.7231 52.7544 36.3201 51.8721 34.4708 49.8824C33.6353 48.9861 34.9824 47.6299 35.8226 48.5356C37.0664 49.8777 39.2866 50.5019 41.0983 50.4596C43.4077 50.408 45.4588 48.3104 44.1493 45.964C42.3328 42.7167 37.8644 43.6271 35.5644 41.0742C33.7057 39.0141 34.5881 35.7762 36.7707 34.3449C39.0472 32.8479 42.9758 32.9042 44.8486 35.0535C45.656 35.9733 44.3042 37.3294 43.4968 36.4003C41.9855 34.6687 38.4135 34.9033 37.0476 36.6865C35.1091 39.2347 38.0099 40.605 40.0375 41.2197C42.8256 42.0644 45.9188 43.6083 46.4257 46.804C46.8294 49.3756 44.8392 51.7736 42.3703 52.2475Z" fill="white"/>
</svg>

<svg xmlns="http://www.w3.org/2000/svg" width="80" height="80" fill="none" viewBox="0 0 80 80"><rect width="80" height="80" fill="#ee4e2c" rx="8"/><path fill="#fff" fill-rule="evenodd" d="M24.722 28.122h31.471A3.82 3.82 0 0 1 60 31.928v22.018a3.82 3.82 0 0 1-3.807 3.806H23.807A3.82 3.82 0 0 1 20 53.946V26.747c0-.99.817-1.675 1.798-1.797l29.021-3.702a1.8 1.8 0 0 1 1.798 1.797v3.078H22.905c0 1.29.385 2 1.812 2zM42.37 52.248c-2.647.506-6.05-.376-7.9-2.366-.835-.896.512-2.252 1.353-1.346 1.243 1.342 3.464 1.966 5.275 1.924 2.31-.052 4.36-2.15 3.051-4.496-1.816-3.247-6.285-2.337-8.585-4.89-1.858-2.06-.976-5.298 1.207-6.73 2.276-1.496 6.205-1.44 8.078.71.807.92-.545 2.275-1.352 1.346-1.511-1.731-5.084-1.497-6.45.287-1.938 2.548.963 3.918 2.99 4.533 2.789.844 5.882 2.388 6.389 5.584.403 2.572-1.587 4.97-4.056 5.444" clip-rule="evenodd"/></svg>
